!!!SOCIAL_FUNCTION:	ceremonial songs
!!!PDT:	1909
!!!OTL: No_64_Initiation_Song.krn
!!!REG: Great_Lakes
!!!LANG: Non-Tone
!!!LING_GROUP: Algonquin
**kern
*staff1
*clefF4
*k[f#]
*M3/4
8d\L
8d\J
=1
4d\
4c\
4B\
=2
2B\
4B\
=3
4B\
4B\
4G\
=4
2B\
4B\
=5
4B\
4G\
4G\
=6||
*M4/4
2G\
4G\
4G\
=7||
*M3/4
2G\
4G\
=8
2G\
8B\L
8B\J
=9
4B\
4A\
4G\
=10
2G\
4G\
=11
4G\
4G\
4E\
=12
2G\
4G\
=13
4G\
4E\
4E\
=14||
*M4/4
2E\
4E\
4E\
=15||
*M3/4
2E\
4E\
=16
2E\
8E\L
8E\J
=17
4.E\
8G\
4G\
=18||
*M4/4
2G\
4G\
4G\
=19||
*M3/4
4G\
4G\
4G\
=20
2A\
4A\
=21
4A\
4G\
4G\
=22||
*M4/4
2G\
4G\
4G\
=23||
*M3/4
2G\
4G\
=24
2G\
8d\L
8d\J
=25
4d\
4c\
4B\
=26
2B\
4B\
=27
4B\
4B\
4G\
=28
2B\
4B\
=29
4B\
4G\
4G\
=30||
*M4/4
2G\
4G\
4G\
=31||
*M3/4
2G\
4G\
=32
2G\
8B\L
8B\J
=33
4B\
4A\
4G\
=34
2G\
4G\
=35
4G\
4G\
4E\
=36
2G\
4G\
=37
4G\
4E\
4E\
=38||
*M4/4
2E\
4E\
4E\
=39||
*M3/4
2E\
4E\
=40
2E\
8E\L
8E\J
=41
4.E\
8G\
4G\
=42
2G\
4G\
=43
4G\
4G\
4G\
=44
2A\
4A\
=45
4A\
4G\
4G\
=46||
*M4/4
2G\
4G\
4G\
=47
2G\
4G\
4G\
=48
*M3/4
4G\
2r
==
*-
